Numix/32/mimetypes/image-x-olympus-orf.svg

<?xml version="1.0" encoding="UTF-8" standalone="no"?>
<svg
   xmlns:dc="http://purl.org/dc/elements/1.1/"
   xmlns:cc="http://creativecommons.org/ns#"
   xmlns:rdf="http://www.w3.org/1999/02/22-rdf-syntax-ns#"
   xmlns:svg="http://www.w3.org/2000/svg"
   xmlns="http://www.w3.org/2000/svg"
   xmlns:sodipodi="http://sodipodi.sourceforge.net/DTD/sodipodi-0.dtd"
   xmlns:inkscape="http://www.inkscape.org/namespaces/inkscape"
   width="32"
   height="32"
   viewBox="0 0 32 32"
   id="svg2"
   version="1.1"
   inkscape:version="0.91 r13725"
   sodipodi:docname="image-x-olympus-orf.svg">
  <metadata
     id="metadata16">
    <rdf:RDF>
      <cc:Work
         rdf:about="">
        <dc:format>image/svg+xml</dc:format>
        <dc:type
           rdf:resource="http://purl.org/dc/dcmitype/StillImage" />
        <dc:title />
      </cc:Work>
    </rdf:RDF>
  </metadata>
  <defs
     id="defs14">
    <clipPath
       id="clipPath-258929573">
      <g
         transform="translate(0,-1004.3622)"
         id="g17">
        <path
           inkscape:connector-curvature="0"
           d="m -24,13 c 0,1.105 -0.672,2 -1.5,2 -0.828,0 -1.5,-0.895 -1.5,-2 0,-1.105 0.672,-2 1.5,-2 0.828,0 1.5,0.895 1.5,2 z"
           transform="matrix(15.333333,0,0,11.5,414.99999,878.8622)"
           style="fill:#1890d0"
           id="path19" />
      </g>
    </clipPath>
    <clipPath
       id="clipPath-258929573-8">
      <g
         transform="translate(0,-1004.3622)"
         id="g17-1">
        <path
           inkscape:connector-curvature="0"
           d="m -24,13 c 0,1.105 -0.672,2 -1.5,2 -0.828,0 -1.5,-0.895 -1.5,-2 0,-1.105 0.672,-2 1.5,-2 0.828,0 1.5,0.895 1.5,2 z"
           transform="matrix(15.333333,0,0,11.5,414.99999,878.8622)"
           style="fill:#1890d0"
           id="path19-8" />
      </g>
    </clipPath>
  </defs>
  <sodipodi:namedview
     pagecolor="#ffffff"
     bordercolor="#666666"
     borderopacity="1"
     objecttolerance="10"
     gridtolerance="10"
     guidetolerance="10"
     inkscape:pageopacity="0"
     inkscape:pageshadow="2"
     inkscape:window-width="1920"
     inkscape:window-height="1013"
     id="namedview12"
     showgrid="true"
     inkscape:zoom="45.254834"
     inkscape:cx="13.563481"
     inkscape:cy="14.568495"
     inkscape:window-x="0"
     inkscape:window-y="27"
     inkscape:window-maximized="1"
     inkscape:current-layer="svg2">
    <inkscape:grid
       type="xygrid"
       id="grid3004" />
  </sodipodi:namedview>
  <path
     style="fill:#38a34e;fill-opacity:1"
     d="M 5.335888,2.97e-4 C 4.648414,3.12e-4 4,0.676788 4,1.394031 L 4,30.606268 C 4,31.282757 4.687474,32 5.335888,32 l 21.327332,0 c 0.648414,0 1.335888,-0.717243 1.335888,-1.393732 L 28,8.9999999 19,0 z"
     id="path4-1"
     inkscape:connector-curvature="0"
     sodipodi:nodetypes="ssssssccs" />
  <path
     style="fill:#000000;fill-opacity:0.19599998"
     d="M 21,8.9999999 28,16 28,8.9999999 z"
     id="path6-4"
     inkscape:connector-curvature="0"
     sodipodi:nodetypes="cccc" />
  <path
     style="fill:#ffffff;fill-opacity:0.39200003"
     d="m 19.000306,2.97e-4 8.991594,8.9997029 -7.613262,0 c -0.672951,0 -1.378332,-0.7134896 -1.378332,-1.3864402 z"
     id="path8-6"
     inkscape:connector-curvature="0"
     sodipodi:nodetypes="ccssc" />
  <path
     style="fill:#000000;fill-opacity:0.19599998"
     d="m 4,24 0,6.667969 C 4,31.316407 4.6875,32 5.3320311,32 L 26.667969,32 C 27.3125,32 28,31.316407 28,30.667969 L 28,24 Z"
     id="path3011"
     inkscape:connector-curvature="0" />
  <path
     inkscape:connector-curvature="0"
     id="path4427"
     style="font-style:normal;font-variant:normal;font-weight:bold;font-stretch:normal;font-size:medium;line-height:125%;font-family:'Ubuntu Mono';-inkscape-font-specification:'Ubuntu Mono, Bold';text-align:start;letter-spacing:0px;word-spacing:0px;writing-mode:lr-tb;text-anchor:start;fill:#ffffff;fill-opacity:1;stroke:none;stroke-width:1px;stroke-linecap:butt;stroke-linejoin:miter;stroke-opacity:1"
     d="m 10,28 c 0,0.278638 0.0082,0.541796 0.02615,0.789474 0.02391,0.241486 0.06577,0.452012 0.125561,0.631579 0.06577,0.179566 0.155452,0.321981 0.269057,0.427244 0.113603,0.105263 0.387909,0.157895 0.57924,0.157895 0.185351,0 0.451146,-0.05263 0.564748,-0.157895 0.119582,-0.105263 0.209268,-0.247678 0.269059,-0.427244 0.06577,-0.185759 0.10762,-0.399381 0.12556,-0.640867 C 11.983285,28.5387 12,28.278638 12,28 c 0,-0.278638 -0.01671,-0.5387 -0.04063,-0.780186 -0.01794,-0.247678 -0.05979,-0.4613 -0.12556,-0.640867 -0.05979,-0.179566 -0.14649,-0.321981 -0.26009,-0.427244 -0.113603,-0.105263 -0.382387,-0.157895 -0.573717,-0.157895 -0.191331,0 -0.465637,0.05263 -0.57924,0.157895 -0.113602,0.105263 -0.203288,0.250774 -0.269057,0.436532 -0.05979,0.179567 -0.101647,0.390093 -0.125561,0.631579 C 10.008205,27.4613 10,27.721362 10,28 Z M 9,28 C 9,27.009288 9.1763826,26.263158 9.5291479,25.76161 9.8819133,25.25387 10.372197,25 11,25 c 0.651719,0 1.147982,0.25387 1.488789,0.76161 C 12.829596,26.263158 13,27.009288 13,28 13,28.990712 12.826607,29.739938 12.479821,30.247678 12.133034,30.749226 11.64275,31 11.008969,31 10.35725,31 9.8579969,30.749226 9.5112107,30.247678 9.1704036,29.739938 9,28.990712 9,28 Z"
     sodipodi:nodetypes="scccscccsccsssccsscscscscs" />
  <path
     inkscape:connector-curvature="0"
     id="path4267"
     style="font-style:normal;font-variant:normal;font-weight:bold;font-stretch:normal;font-size:medium;line-height:125%;font-family:'Ubuntu Mono';-inkscape-font-specification:'Ubuntu Mono, Bold';text-align:start;letter-spacing:0px;word-spacing:0px;writing-mode:lr-tb;text-anchor:start;fill:#ffffff;fill-opacity:1;stroke:none;stroke-width:1px;stroke-linecap:butt;stroke-linejoin:miter;stroke-opacity:1"
     d="m 15.871138,25.000012 c 0.324904,0 0.619158,0.03834 0.882759,0.115016 0.2636,0.07668 0.49042,0.194887 0.68046,0.354631 0.190037,0.159745 0.334099,0.364217 0.432183,0.613418 C 17.970755,26.325888 18,26.667732 18,27 18,27.345047 17.95543,27.75878 17.820563,28.039929 17.685697,28.321079 17.312644,28.353036 17,28.5 c 0.539368,0.928385 0.761038,1.5 1,2.5 l -1,0 c -0.249835,-0.760014 -0.611911,-1.442856 -1,-2 l -1,0 0,2 -1,0 0,-5.846634 c 0.110345,-0.02556 0.229885,-0.04792 0.358621,-0.06709 0.134866,-0.02556 0.269732,-0.04154 0.404597,-0.04793 0.134866,-0.01278 0.263602,-0.02236 0.386207,-0.02875 C 15.27203,25.003199 15.779184,25 15.871138,25 Z M 16.875,26.125 C 16.691092,25.978035 16.171521,26 15.871138,26 L 15,26 l 0,2 0.37931,0 c 0.386207,0 1.324043,0.02836 1.49569,-0.125 C 17.046647,27.715256 17,27.287539 17,27 c 0,-0.352278 0.01709,-0.659036 -0.125,-0.875 z"
     sodipodi:nodetypes="csscsscccccccccccccccccsccc" />
  <path
     inkscape:connector-curvature="0"
     id="path4174"
     style="font-style:normal;font-variant:normal;font-weight:bold;font-stretch:normal;font-size:9.0232296px;line-height:125%;font-family:'Ubuntu Mono';-inkscape-font-specification:'Ubuntu Mono, Bold';text-align:start;letter-spacing:0px;word-spacing:0px;writing-mode:lr-tb;text-anchor:start;fill:#ffffff;fill-opacity:1;stroke:none;stroke-width:1px;stroke-linecap:butt;stroke-linejoin:miter;stroke-opacity:1"
     d="m 19,31 0,-6 4,0 0,0.988692 -3,0 0,1.016962 2,0 0,0.988692 -2,0 L 20,31 Z"
     sodipodi:nodetypes="ccccccccccc" />
  <g
     transform="matrix(0.40082111,0,0,0.40065477,6.3788233,6.3732701)"
     style="fill:#ffffff;fill-opacity:1"
     id="g59">
    <g
       id="g61"
       clip-path="url(#clipPath-258929573-8)"
       style="fill:#ffffff">
      <!-- color: #3d3d3d -->
      <g
         id="g63"
         style="fill:#ffffff">
        <path
           style="fill:#ffffff;fill-rule:nonzero;stroke:none"
           d="m 16.089844,10.007812 c -1.647385,0.02317 -3.248499,0.700118 -4.390625,1.935547 l 2.873047,2.886719 1.517578,-4.822266 z m 1.470703,0.31836 -1.179688,3.759766 3.197266,-0.53711 1.808594,-0.351562 c -0.806312,-1.417159 -2.181368,-2.470118 -3.826172,-2.871094 z m -6.859375,2.740234 c -0.7320031,1.377377 -0.9077695,3.006727 -0.427734,4.53711 l 4.134765,-0.675782 -0.652344,-0.792968 -3.054687,-3.06836 z m 11.113281,1.626953 -3.806641,0.638672 3.181641,3.779297 c 0.768227,-1.324374 1.009221,-2.907602 0.625,-4.417969 z m -4.236328,2.458985 -1.816406,4.333984 -0.205078,0.507813 c 1.698131,0.0725 3.373185,-0.573608 4.58789,-1.794922 l -2.566406,-3.046875 z m -2.097656,1.121094 -4.714844,0.769531 c 0.763067,1.193862 1.939817,2.098057 3.333984,2.523437 l 1.38086,-3.292968 z"
           transform="matrix(2.4970249,0,0,2.4976141,-15.947859,-15.944531)"
           id="path65"
           inkscape:connector-curvature="0" />
      </g>
    </g>
  </g>
</svg>

<svg xmlns="http://www.w3.org/2000/svg" viewBox="0 0 32 32">
 <defs>
  
 </defs>
 <path d="m 5.336 0 c -0.687 0 -1.336 0.676 -1.336 1.394 l 0 29.21 c 0 0.676 0.687 1.394 1.336 1.394 l 21.327 0 c 0.648 0 1.336 -0.717 1.336 -1.394 l 0.001 -21.606 -9 -9 z" style="fill:#38a34e;fill-opacity:1"/>
 <path d="m 21 9 7 7 0 -7 z" style="fill:#000;fill-opacity:0.196"/>
 <path d="m 19 0 8.992 9 -7.613 0 c -0.673 0 -1.378 -0.713 -1.378 -1.386 z" style="fill:#fff;fill-opacity:0.392"/>
 <path d="m 4 24 0 6.668 c 0 0.648 0.688 1.332 1.332 1.332 l 21.336 0 c 0.645 0 1.332 -0.684 1.332 -1.332 l 0 -6.668" style="fill:#000;fill-opacity:0.196"/>
 <path d="m 10 28 c 0 0.279 0.008 0.542 0.026 0.789 0.024 0.241 0.066 0.452 0.126 0.632 0.066 0.18 0.155 0.322 0.269 0.427 0.114 0.105 0.388 0.158 0.579 0.158 0.185 0 0.451 -0.053 0.565 -0.158 0.12 -0.105 0.209 -0.248 0.269 -0.427 0.066 -0.186 0.108 -0.399 0.126 -0.641 c 0.024 -0.241 0.041 -0.502 0.041 -0.78 c 0 -0.279 -0.017 -0.539 -0.041 -0.78 -0.018 -0.248 -0.06 -0.461 -0.126 -0.641 -0.06 -0.18 -0.146 -0.322 -0.26 -0.427 -0.114 -0.105 -0.382 -0.158 -0.574 -0.158 -0.191 0 -0.466 0.053 -0.579 0.158 -0.114 0.105 -0.203 0.251 -0.269 0.437 -0.06 0.18 -0.102 0.39 -0.126 0.632 c -0.018 0.241 -0.026 0.502 -0.026 0.78 m -1 0 c 0 -0.991 0.176 -1.737 0.529 -2.238 0.353 -0.508 0.843 -0.762 1.471 -0.762 c 0.652 0 1.148 0.254 1.489 0.762 c 0.341 0.502 0.511 1.248 0.511 2.238 0 0.991 -0.173 1.74 -0.52 2.248 -0.347 0.502 -0.837 0.752 -1.471 0.752 -0.652 0 -1.151 -0.251 -1.498 -0.752 -0.341 -0.508 -0.511 -1.257 -0.511 -2.248" style="fill:#fff;fill-opacity:1;stroke:none"/>
 <path d="m 15.871 25 c 0.325 0 0.619 0.038 0.883 0.115 0.264 0.077 0.49 0.195 0.68 0.355 0.19 0.16 0.334 0.364 0.432 0.613 c 0.104 0.243 0.133 0.585 0.133 0.917 0 0.345 -0.045 0.759 -0.179 1.04 -0.135 0.281 -0.508 0.313 -0.821 0.46 c 0.539 0.928 0.761 1.5 1 2.5 l -1 0 c -0.25 -0.76 -0.612 -1.443 -1 -2 l -1 0 0 2 -1 0 0 -5.847 c 0.11 -0.026 0.23 -0.048 0.359 -0.067 0.135 -0.026 0.27 -0.042 0.405 -0.048 0.135 -0.013 0.264 -0.022 0.386 -0.029 c 0.123 -0.006 0.63 -0.01 0.722 -0.01 m 1 1.125 c -0.184 -0.147 -0.703 -0.125 -1 -0.125 l -0.871 0 l 0 2 0.379 0 c 0.386 0 1.324 0.028 1.496 -0.125 c 0.172 -0.16 0.125 -0.587 0.125 -0.875 c 0 -0.352 0.017 -0.659 -0.125 -0.875 z" style="fill:#fff;fill-opacity:1;stroke:none"/>
 <path d="m 19 31 0 -6 4 0 0 0.989 -3 0 0 1.017 2 0 0 0.989 -2 0 l 0 3.01" style="fill:#fff;fill-opacity:1;stroke:none"/>
 <g transform="matrix(0.40082111,0,0,0.40065477,6.3788233,6.3732701)" style="fill:#fff;fill-opacity:1">
  <g style="clip-path:url(#clipPath-258929573-8);fill:#fff">
   <!-- color: #3d3d3d -->
   <g style="fill:#fff">
    <path d="m 16.09 10.01 c -1.647 0.023 -3.248 0.7 -4.391 1.936 l 2.873 2.887 1.518 -4.822 z m 1.471 0.318 -1.18 3.76 3.197 -0.537 1.809 -0.352 c -0.806 -1.417 -2.181 -2.47 -3.826 -2.871 z m -6.859 2.74 c -0.732 1.377 -0.908 3.01 -0.428 4.537 l 4.135 -0.676 -0.652 -0.793 -3.055 -3.068 z m 11.11 1.627 -3.807 0.639 3.182 3.779 c 0.768 -1.324 1.01 -2.908 0.625 -4.418 z m -4.236 2.459 -1.816 4.334 -0.205 0.508 c 1.698 0.073 3.373 -0.574 4.588 -1.795 l -2.566 -3.047 z m -2.098 1.121 -4.715 0.77 c 0.763 1.194 1.94 2.098 3.334 2.523 l 1.381 -3.293 z" transform="matrix(2.4970249,0,0,2.4976141,-15.947859,-15.944531)" style="fill:#fff;stroke:none;fill-rule:nonzero"/>
   </g>
  </g>
 </g>
</svg>
